X:1
T:Silver Spire, The
M:4/4
L:1/8
S:Music of Corktown, Vol. 1
R:Reel
K:D
|: A,C \
| D2 FE DFAc | dcde fdAF | GABG FADF | (3GFE FD EGFE |
| D2 FE DFAc | dcde fdAF | GABG FADF | EDCE D2 :|
|: z2 \
| A,B,CD EFGE | FDEF GABc | dcdA Bcde | fdgf ecAc |
| defd ceAc | dcdB AFDF | GABG FADF | EDCE D2 :|

